packages/base/core/src/svg/system/lightbulb.svg

<?xml version="1.0" encoding="UTF-8"?>
<svg width="24px" height="24px" viewBox="0 0 24 24" version="1.1" xmlns="http://www.w3.org/2000/svg" xmlns:xlink="http://www.w3.org/1999/xlink">
    <!-- Generator: Sketch 54.1 (76490) - https://sketchapp.com -->
    <title>Icons/System/lightbulb</title>
    <desc>Created with Sketch.</desc>
    <g id="Icons/System/lightbulb" stroke="none" stroke-width="1" fill="none" fill-rule="evenodd">
        <path d="M14.1386061,13.835601 C14.3142609,12.7816723 14.6674394,11.9183471 15.2928932,11.2928932 C17.3478522,9.23793428 17.4505396,6.37947181 15.5355339,4.46446609 C13.5829124,2.51184464 10.4170876,2.51184464 8.46446609,4.46446609 C6.57761936,6.35131283 6.70249074,9.28827718 8.70710678,11.2928932 C9.77423571,12.3600222 10,13.7146079 10,16 L14,16 C14,15.0722235 14.0253116,14.5153677 14.1386061,13.835601 Z M16.7071068,12.7071068 C16.4287145,12.9854991 16.2248016,13.4839527 16.1113939,14.164399 C16.0215634,14.7033823 16,15.1777765 16,16 C16,17.2189514 15.2189514,18 14,18 L10,18 C8.78104858,18 8,17.2189514 8,16 C8,14.2853921 7.82576429,13.2399778 7.29289322,12.7071068 C4.53282821,9.94704177 4.3542238,5.74628126 7.05025253,3.05025253 C9.78392257,0.316582489 14.2160774,0.316582489 16.9497475,3.05025253 C19.6694193,5.76992439 19.5213052,9.8929084 16.7071068,12.7071068 Z M10,22 C9.44771525,22 9,21.5522847 9,21 C9,20.4477153 9.44771525,20 10,20 L14,20 C14.5522847,20 15,20.4477153 15,21 C15,21.5522847 14.5522847,22 14,22 L10,22 Z" id="Color" fill="#2859C0"></path>
    </g>
</svg>

<svg xmlns="http://www.w3.org/2000/svg" width="24" height="24" viewBox="0 0 24 24">
    <path fill="#0050D7" fill-rule="evenodd" d="M14 20a1 1 0 0 1 0 2h-4a1 1 0 0 1 0-2h4zm2.95-16.95c2.72 2.72 2.571 6.843-.243 9.657-.278.278-.482.777-.596 1.457-.09.54-.111 1.014-.111 1.836 0 1.219-.781 2-2 2h-4c-1.219 0-2-.781-2-2 0-1.715-.174-2.76-.707-3.293-2.76-2.76-2.939-6.96-.243-9.657a7 7 0 0 1 9.9 0zM8.464 4.464c-1.886 1.887-1.762 4.824.243 6.829C9.774 12.36 10 13.715 10 16h4c0-.928.025-1.485.139-2.164.175-1.054.528-1.918 1.154-2.543 2.055-2.055 2.158-4.914.243-6.829a5 5 0 0 0-7.072 0z"/>
</svg>
